flash-red-eye.svg

<svg fill="currentColor" viewBox="0 0 24 24"><path d="M16 5c-.56 0-1 .44-1 1s.44 1 1 1 1-.44 1-1-.44-1-1-1m0-3c-2.73 0-5.06 1.66-6 4 .94 2.34 3.27 4 6 4s5.06-1.66 6-4c-.94-2.34-3.27-4-6-4m0 1.5A2.5 2.5 0 0 1 18.5 6 2.5 2.5 0 0 1 16 8.5 2.5 2.5 0 0 1 13.5 6 2.5 2.5 0 0 1 16 3.5M3 2v12h3v9l7-12H9l1.12-2.5C9.44 7.76 8.88 6.93 8.5 6c.69-1.71 2-3.12 3.61-4z"/></svg>

<svg  viewBox="0 0 24 24" fill="currentColor"><path  d="M16,5C15.44,5 15,5.44 15,6C15,6.56 15.44,7 16,7C16.56,7 17,6.56 17,6C17,5.44 16.56,5 16,5M16,2C13.27,2 10.94,3.66 10,6C10.94,8.34 13.27,10 16,10C18.73,10 21.06,8.34 22,6C21.06,3.66 18.73,2 16,2M16,3.5A2.5,2.5 0 0,1 18.5,6A2.5,2.5 0 0,1 16,8.5A2.5,2.5 0 0,1 13.5,6A2.5,2.5 0 0,1 16,3.5M3,2V14H6V23L13,11H9L10.12,8.5C9.44,7.76 8.88,6.93 8.5,6C9.19,4.29 10.5,2.88 12.11,2H3Z"/></svg>
